X:815
T: Maura Connolly's
C: Sen Ryan
S: B.Breathnach: "Ceol Rince na hEireann" II/239 (gan ainm)
Z: B.Black
L: 1/8
M: 4/4
R: reel
K: Ador
B|cBAG EGAc|BG (3GFG EG A2|cBAG E3F|GEDG EA, A,2|
cBAG EGAc|BG (3GFG DGBd|cBcd egfa|gedB cAA :|
F|: A2 (3cBA aAcA|G2 Bd gdBG|(3AcA ce a2 ba|(3gfe dB cAAg|
(3aba ed cdef|gfga (3gfe dB|cBAG E3F|GEDG EA, A,2 :|
